X:614
T:Reel 614
M:4/4
K:Dmaj
L:1/8
DE|F>D (3DDD D2D2|FDFA d2cd|B>E (3EEE FEFG|F>E (3EEE E2AG|FDDD A,DD2|FDFA d2cd|BcdB AFDE|FDED C2|FG|A2dc d2d2|dcdB AFDF|G2BG F2F2|EFED B,2E2|Addc d2d2|Bd (3cde dBAF|EFGA BABc|dBAF EGFE|
